Numix/24/mimetypes/text-x-gtkrc.svg

<svg xmlns="http://www.w3.org/2000/svg" viewBox="0 0 24 24">
 <path d="m 5 1 c -0.473 0 -1 0.527 -1 1 l 0 20 c 0 0.445 0.555 1 1 1 l 14 0 c 0.445 0 0.992 -0.555 1 -1 l 0 -15 -6 -6 z" style="fill:#dc322f;fill-opacity:1"/>
 <path d="m 15 7 5 5 0 -5 z" style="fill:#000;fill-opacity:0.196"/>
 <path d="m 14 1 6 6 -5 0 c -0.445 0 -1 -0.555 -1 -1 z" style="fill:#fff;fill-opacity:0.392"/>
 <path d="m 8 14 c -0.554 0 -1 0.446 -1 1 l 0 3 c 0 0.554 0.446 1 1 1 l 3 0 c 0.554 0 1 -0.446 1 -1 l 0 -3 c 0 -0.554 -0.446 -1 -1 -1 z m 2.717 1 0.533 0.539 -2.534 2.461 -1.066 -1.078 0.533 -0.541 0.533 0.541" style="fill:#fff;opacity:1;fill-opacity:1;stroke:none"/>
 <path d="M 8,9 C 7.446,9 7,9.446 7,10 l 0,2 c 0,0.554 0.446,1 1,1 l 8,0 c 0.554,0 1,-0.446 1,-1 l 0,-2 C 17,9.446 16.554,9 16,9 L 8,9 Z m 0,1 5,0 0,2 -5,0 0,-2 z m 6,0 2,0 0,2 -2,0 0,-2 z" style="fill:#fff;opacity:1;fill-opacity:1;stroke:none"/>
 <path d="M 14.5 14 A 2.5 2.5 0 0 0 12 16.5 2.5 2.5 0 0 0 14.5 19 2.5 2.5 0 0 0 17 16.5 2.5 2.5 0 0 0 14.5 14 m 0 0.75 a 1.75 1.75 0 0 1 1.75 1.75 1.75 1.75 0 0 1 -1.75 1.75 1.75 1.75 0 0 1 -1.75 -1.75 1.75 1.75 0 0 1 1.75 -1.75 z m 0 0.75 a 1 1 0 0 0 -1 1 1 1 0 0 0 1 1 1 1 0 0 0 1 -1 1 1 0 0 0 -1 -1 z" style="fill:#fff;opacity:1;fill-opacity:1;stroke:none"/>
</svg>

<?xml version="1.0" encoding="UTF-8" standalone="no"?>
<svg
   xmlns:dc="http://purl.org/dc/elements/1.1/"
   xmlns:cc="http://creativecommons.org/ns#"
   xmlns:rdf="http://www.w3.org/1999/02/22-rdf-syntax-ns#"
   xmlns:svg="http://www.w3.org/2000/svg"
   xmlns="http://www.w3.org/2000/svg"
   xmlns:sodipodi="http://sodipodi.sourceforge.net/DTD/sodipodi-0.dtd"
   xmlns:inkscape="http://www.inkscape.org/namespaces/inkscape"
   width="24"
   height="24"
   viewBox="0 0 24 24"
   id="svg2"
   version="1.1"
   inkscape:version="0.91 r13725"
   sodipodi:docname="text-x-gtkrc.svg">
  <metadata
     id="metadata24">
    <rdf:RDF>
      <cc:Work
         rdf:about="">
        <dc:format>image/svg+xml</dc:format>
        <dc:type
           rdf:resource="http://purl.org/dc/dcmitype/StillImage" />
      </cc:Work>
    </rdf:RDF>
  </metadata>
  <defs
     id="defs22" />
  <sodipodi:namedview
     pagecolor="#ffffff"
     bordercolor="#666666"
     borderopacity="1"
     objecttolerance="10"
     gridtolerance="10"
     guidetolerance="10"
     inkscape:pageopacity="0"
     inkscape:pageshadow="2"
     inkscape:window-width="1366"
     inkscape:window-height="704"
     id="namedview20"
     showgrid="true"
     inkscape:zoom="32"
     inkscape:cx="8.875227"
     inkscape:cy="10.826288"
     inkscape:window-x="0"
     inkscape:window-y="27"
     inkscape:window-maximized="1"
     inkscape:current-layer="svg2">
    <inkscape:grid
       type="xygrid"
       id="grid3012"
       empspacing="5"
       visible="true"
       enabled="true"
       snapvisiblegridlinesonly="true" />
  </sodipodi:namedview>
  <path
     style="fill:#dc322f;fill-opacity:1"
     d="M 5,1 C 4.527343,1 4,1.527344 4,2 l 0,20 c 0,0.445312 0.554687,1 1,1 l 14,0 c 0.445313,0 0.992367,-0.554753 1,-1 L 20,7 14,1 z"
     id="path4"
     inkscape:connector-curvature="0"
     sodipodi:nodetypes="ssssssccs" />
  <path
     style="fill:#000000;fill-opacity:0.19599998"
     d="m 15,7 5,5 0,-5 z"
     id="path6"
     inkscape:connector-curvature="0"
     sodipodi:nodetypes="cccc" />
  <path
     style="fill:#ffffff;fill-opacity:0.39200003"
     d="m 14,1 6,6 -5,0 C 14.554688,7 14,6.445312 14,6 z"
     id="path8"
     inkscape:connector-curvature="0"
     sodipodi:nodetypes="ccssc" />
  <path
     style="opacity:1;fill:#ffffff;fill-opacity:1;stroke:none;stroke-width:3;stroke-linecap:round;stroke-linejoin:round;stroke-miterlimit:4;stroke-dasharray:none;stroke-opacity:1"
     d="m 8,14 c -0.554,0 -1,0.446 -1,1 l 0,3 c 0,0.554 0.446,1 1,1 l 3,0 c 0.554,0 1,-0.446 1,-1 l 0,-3 c 0,-0.554 -0.446,-1 -1,-1 z M 10.716797,15 11.25,15.539062 8.7162031,18 7.6497969,16.921875 8.183,16.380859 8.7162031,16.921875 Z"
     id="rect4141"
     inkscape:connector-curvature="0"
     sodipodi:nodetypes="sssssssssccccccc" />
  <path
     inkscape:connector-curvature="0"
     style="opacity:1;fill:#ffffff;fill-opacity:1;stroke:none;stroke-width:3;stroke-linecap:round;stroke-linejoin:round;stroke-miterlimit:4;stroke-dasharray:none;stroke-opacity:1"
     d="M 8,9 C 7.446,9 7,9.446 7,10 l 0,2 c 0,0.554 0.446,1 1,1 l 8,0 c 0.554,0 1,-0.446 1,-1 l 0,-2 C 17,9.446 16.554,9 16,9 L 8,9 Z m 0,1 5,0 0,2 -5,0 0,-2 z m 6,0 2,0 0,2 -2,0 0,-2 z"
     id="rect4145" />
  <path
     inkscape:connector-curvature="0"
     style="opacity:1;fill:#ffffff;fill-opacity:1;stroke:none;stroke-width:3;stroke-linecap:round;stroke-linejoin:round;stroke-miterlimit:4;stroke-dasharray:none;stroke-opacity:1"
     d="M 14.5,14 A 2.5,2.5 0 0 0 12,16.5 2.5,2.5 0 0 0 14.5,19 2.5,2.5 0 0 0 17,16.5 2.5,2.5 0 0 0 14.5,14 Z m 0,0.75 a 1.75,1.75 0 0 1 1.75,1.75 1.75,1.75 0 0 1 -1.75,1.75 1.75,1.75 0 0 1 -1.75,-1.75 1.75,1.75 0 0 1 1.75,-1.75 z m 0,0.75 a 1,1 0 0 0 -1,1 1,1 0 0 0 1,1 1,1 0 0 0 1,-1 1,1 0 0 0 -1,-1 z"
     id="path4140" />
</svg>
